docs/graphics/general/ModalAlert.svg

<svg width="317" height="180" viewBox="0 0 317 180" fill="none" xmlns="http://www.w3.org/2000/svg">
<path d="M21 46C21 37.1634 28.1634 30 37 30H275C283.837 30 291 37.1634 291 46V134C291 142.837 283.837 150 275 150H37C28.1634 150 21 142.837 21 134V46Z" fill="white"/>
<path fill-rule="evenodd" clip-rule="evenodd" d="M275 32H37C29.268 32 23 38.268 23 46V134C23 141.732 29.268 148 37 148H275C282.732 148 289 141.732 289 134V46C289 38.268 282.732 32 275 32ZM37 30C28.1634 30 21 37.1634 21 46V134C21 142.837 28.1634 150 37 150H275C283.837 150 291 142.837 291 134V46C291 37.1634 283.837 30 275 30H37Z" fill="#005C62"/>
<path d="M231.5 128C231.5 121.373 236.873 116 243.5 116H263C269.627 116 275 121.373 275 128C275 134.627 269.627 140 263 140H243.5C236.873 140 231.5 134.627 231.5 128Z" fill="#005C62"/>
<path d="M242.531 130.637C243.734 130.637 244.48 130.016 244.48 129.023C244.48 128.297 243.938 127.738 243.191 127.68V127.609C243.77 127.523 244.211 127.004 244.211 126.406C244.211 125.535 243.559 125 242.465 125H240V130.637H242.531ZM241.18 125.875H242.164C242.727 125.875 243.051 126.148 243.051 126.609C243.051 127.078 242.703 127.344 242.066 127.344H241.18V125.875ZM241.18 129.758V128.121H242.203C242.898 128.121 243.277 128.402 243.277 128.93C243.277 129.469 242.91 129.758 242.23 129.758H241.18Z" fill="white"/>
<path d="M249.332 126.336H248.195V128.82C248.195 129.41 247.891 129.773 247.324 129.773C246.801 129.773 246.531 129.465 246.531 128.855V126.336H245.395V129.137C245.395 130.137 245.973 130.727 246.902 130.727C247.555 130.727 247.957 130.445 248.16 129.945H248.23V130.637H249.332V126.336Z" fill="white"/>
<path d="M250.797 125.309V126.375H250.125V127.238H250.797V129.477C250.797 130.312 251.211 130.652 252.258 130.652C252.477 130.652 252.688 130.629 252.828 130.602V129.762C252.719 129.773 252.641 129.781 252.492 129.781C252.105 129.781 251.934 129.602 251.934 129.215V127.238H252.828V126.375H251.934V125.309H250.797Z" fill="white"/>
<path d="M254.141 125.309V126.375H253.469V127.238H254.141V129.477C254.141 130.312 254.555 130.652 255.602 130.652C255.82 130.652 256.031 130.629 256.172 130.602V129.762C256.062 129.773 255.984 129.781 255.836 129.781C255.449 129.781 255.277 129.602 255.277 129.215V127.238H256.172V126.375H255.277V125.309H254.141Z" fill="white"/>
<path d="M259 130.727C260.324 130.727 261.121 129.891 261.121 128.484C261.121 127.09 260.312 126.242 259 126.242C257.688 126.242 256.879 127.094 256.879 128.484C256.879 129.887 257.676 130.727 259 130.727ZM259 129.828C258.391 129.828 258.047 129.336 258.047 128.484C258.047 127.641 258.395 127.145 259 127.145C259.602 127.145 259.953 127.641 259.953 128.484C259.953 129.336 259.605 129.828 259 129.828Z" fill="white"/>
<path d="M262.051 130.637H263.188V128.148C263.188 127.566 263.512 127.191 264.039 127.191C264.578 127.191 264.832 127.508 264.832 128.113V130.637H265.969V127.855C265.969 126.828 265.453 126.242 264.496 126.242C263.859 126.242 263.422 126.543 263.223 127.027H263.152V126.336H262.051V130.637Z" fill="white"/>
<rect x="62" y="46" width="130" height="12" rx="6" fill="#009990" fill-opacity="0.5"/>
<rect x="37" y="66" width="238" height="8" rx="4" fill="#009990" fill-opacity="0.5"/>
<rect x="37" y="82" width="166" height="8" rx="4" fill="#009990" fill-opacity="0.5"/>
<path d="M51.4512 48.5824L45.829 42.5854C45.0972 41.8049 43.9028 41.8049 43.171 42.5854L37.5488 48.5824C36.8171 49.3629 36.8171 50.6371 37.5488 51.4176L43.171 57.4146C43.9028 58.1951 45.0972 58.1951 45.829 57.4146L51.4512 51.4176C52.1829 50.6371 52.1829 49.3696 51.4512 48.5824ZM44.4969 54.6729C43.959 54.6729 43.5213 54.206 43.5213 53.6323C43.5213 53.0586 43.959 52.5916 44.4969 52.5916C45.0347 52.5916 45.4725 53.0586 45.4725 53.6323C45.4725 54.206 45.0347 54.6729 44.4969 54.6729ZM45.4725 50.5237C45.4725 51.0974 45.0347 51.5643 44.4969 51.5643C43.959 51.5643 43.5213 51.0974 43.5213 50.5237V46.3677C43.5213 45.794 43.959 45.3271 44.4969 45.3271C45.0347 45.3271 45.4725 45.794 45.4725 46.3677V50.5237Z" fill="#005C62"/>
<path d="M184 128C184 121.373 189.373 116 196 116H215.5C222.127 116 227.5 121.373 227.5 128C227.5 134.627 222.127 140 215.5 140H196C189.373 140 184 134.627 184 128Z" fill="#009990"/>
<path d="M195.031 130.637C196.234 130.637 196.98 130.016 196.98 129.023C196.98 128.297 196.438 127.738 195.691 127.68V127.609C196.27 127.523 196.711 127.004 196.711 126.406C196.711 125.535 196.059 125 194.965 125H192.5V130.637H195.031ZM193.68 125.875H194.664C195.227 125.875 195.551 126.148 195.551 126.609C195.551 127.078 195.203 127.344 194.566 127.344H193.68V125.875ZM193.68 129.758V128.121H194.703C195.398 128.121 195.777 128.402 195.777 128.93C195.777 129.469 195.41 129.758 194.73 129.758H193.68Z" fill="white"/>
<path d="M201.832 126.336H200.695V128.82C200.695 129.41 200.391 129.773 199.824 129.773C199.301 129.773 199.031 129.465 199.031 128.855V126.336H197.895V129.137C197.895 130.137 198.473 130.727 199.402 130.727C200.055 130.727 200.457 130.445 200.66 129.945H200.73V130.637H201.832V126.336Z" fill="white"/>
<path d="M203.297 125.309V126.375H202.625V127.238H203.297V129.477C203.297 130.312 203.711 130.652 204.758 130.652C204.977 130.652 205.188 130.629 205.328 130.602V129.762C205.219 129.773 205.141 129.781 204.992 129.781C204.605 129.781 204.434 129.602 204.434 129.215V127.238H205.328V126.375H204.434V125.309H203.297Z" fill="white"/>
<path d="M206.641 125.309V126.375H205.969V127.238H206.641V129.477C206.641 130.312 207.055 130.652 208.102 130.652C208.32 130.652 208.531 130.629 208.672 130.602V129.762C208.562 129.773 208.484 129.781 208.336 129.781C207.949 129.781 207.777 129.602 207.777 129.215V127.238H208.672V126.375H207.777V125.309H206.641Z" fill="white"/>
<path d="M211.5 130.727C212.824 130.727 213.621 129.891 213.621 128.484C213.621 127.09 212.812 126.242 211.5 126.242C210.188 126.242 209.379 127.094 209.379 128.484C209.379 129.887 210.176 130.727 211.5 130.727ZM211.5 129.828C210.891 129.828 210.547 129.336 210.547 128.484C210.547 127.641 210.895 127.145 211.5 127.145C212.102 127.145 212.453 127.641 212.453 128.484C212.453 129.336 212.105 129.828 211.5 129.828Z" fill="white"/>
<path d="M214.551 130.637H215.688V128.148C215.688 127.566 216.012 127.191 216.539 127.191C217.078 127.191 217.332 127.508 217.332 128.113V130.637H218.469V127.855C218.469 126.828 217.953 126.242 216.996 126.242C216.359 126.242 215.922 126.543 215.723 127.027H215.652V126.336H214.551V130.637Z" fill="white"/>
</svg>

<svg xmlns="http://www.w3.org/2000/svg" width="317" height="180" fill="none"><path fill="#fff" d="M21 46c0-8.837 7.163-16 16-16h238c8.837 0 16 7.163 16 16v88c0 8.837-7.163 16-16 16H37c-8.837 0-16-7.163-16-16V46Z"/><path fill="#005C62" fill-rule="evenodd" d="M275 32H37c-7.732 0-14 6.268-14 14v88c0 7.732 6.268 14 14 14h238c7.732 0 14-6.268 14-14V46c0-7.732-6.268-14-14-14ZM37 30c-8.837 0-16 7.163-16 16v88c0 8.837 7.163 16 16 16h238c8.837 0 16-7.163 16-16V46c0-8.837-7.163-16-16-16H37Z" clip-rule="evenodd"/><path fill="#005C62" d="M231.5 128c0-6.627 5.373-12 12-12H263c6.627 0 12 5.373 12 12s-5.373 12-12 12h-19.5c-6.627 0-12-5.373-12-12Z"/><path fill="#fff" d="M242.531 130.637c1.203 0 1.949-.621 1.949-1.614 0-.726-.542-1.285-1.289-1.343v-.071a1.218 1.218 0 0 0 1.02-1.203c0-.871-.652-1.406-1.746-1.406H240v5.637h2.531Zm-1.351-4.762h.984c.563 0 .887.273.887.734 0 .469-.348.735-.985.735h-.886v-1.469Zm0 3.883v-1.637h1.023c.695 0 1.074.281 1.074.809 0 .539-.367.828-1.047.828h-1.05ZM249.332 126.336h-1.137v2.484c0 .59-.304.953-.871.953-.523 0-.793-.308-.793-.918v-2.519h-1.136v2.801c0 1 .578 1.59 1.507 1.59.653 0 1.055-.282 1.258-.782h.07v.692h1.102v-4.301ZM250.797 125.309v1.066h-.672v.863h.672v2.239c0 .835.414 1.175 1.461 1.175.219 0 .43-.023.57-.05v-.84c-.109.011-.187.019-.336.019-.387 0-.558-.179-.558-.566v-1.977h.894v-.863h-.894v-1.066h-1.137ZM254.141 125.309v1.066h-.672v.863h.672v2.239c0 .835.414 1.175 1.461 1.175.218 0 .429-.023.57-.05v-.84c-.11.011-.188.019-.336.019-.387 0-.559-.179-.559-.566v-1.977h.895v-.863h-.895v-1.066h-1.136ZM259 130.727c1.324 0 2.121-.836 2.121-2.243 0-1.394-.809-2.242-2.121-2.242-1.312 0-2.121.852-2.121 2.242 0 1.403.797 2.243 2.121 2.243Zm0-.899c-.609 0-.953-.492-.953-1.344 0-.843.348-1.339.953-1.339.602 0 .953.496.953 1.339 0 .852-.348 1.344-.953 1.344ZM262.051 130.637h1.137v-2.489c0-.582.324-.957.851-.957.539 0 .793.317.793.922v2.524h1.137v-2.782c0-1.027-.516-1.613-1.473-1.613-.637 0-1.074.301-1.273.785h-.071v-.691h-1.101v4.301Z"/><rect width="130" height="12" x="62" y="46" fill="#009990" fill-opacity=".5" rx="6"/><rect width="238" height="8" x="37" y="66" fill="#009990" fill-opacity=".5" rx="4"/><rect width="166" height="8" x="37" y="82" fill="#009990" fill-opacity=".5" rx="4"/><path fill="#005C62" d="m51.451 48.582-5.622-5.997a1.801 1.801 0 0 0-2.658 0l-5.622 5.997c-.732.78-.732 2.055 0 2.836l5.622 5.997c.732.78 1.926.78 2.658 0l5.622-5.997c.732-.78.732-2.048 0-2.836Zm-6.954 6.09c-.538 0-.976-.466-.976-1.04 0-.573.438-1.04.976-1.04s.975.467.975 1.04c0 .574-.437 1.04-.975 1.04Zm.975-4.148c0 .573-.437 1.04-.975 1.04s-.976-.467-.976-1.04v-4.156c0-.574.438-1.04.976-1.04s.975.466.975 1.04v4.156Z"/><path fill="#009990" d="M184 128c0-6.627 5.373-12 12-12h19.5c6.627 0 12 5.373 12 12s-5.373 12-12 12H196c-6.627 0-12-5.373-12-12Z"/><path fill="#fff" d="M195.031 130.637c1.203 0 1.949-.621 1.949-1.614 0-.726-.542-1.285-1.289-1.343v-.071a1.218 1.218 0 0 0 1.02-1.203c0-.871-.652-1.406-1.746-1.406H192.5v5.637h2.531Zm-1.351-4.762h.984c.563 0 .887.273.887.734 0 .469-.348.735-.985.735h-.886v-1.469Zm0 3.883v-1.637h1.023c.695 0 1.074.281 1.074.809 0 .539-.367.828-1.047.828h-1.05ZM201.832 126.336h-1.137v2.484c0 .59-.304.953-.871.953-.523 0-.793-.308-.793-.918v-2.519h-1.136v2.801c0 1 .578 1.59 1.507 1.59.653 0 1.055-.282 1.258-.782h.07v.692h1.102v-4.301ZM203.297 125.309v1.066h-.672v.863h.672v2.239c0 .835.414 1.175 1.461 1.175.219 0 .43-.023.57-.05v-.84c-.109.011-.187.019-.336.019-.387 0-.558-.179-.558-.566v-1.977h.894v-.863h-.894v-1.066h-1.137ZM206.641 125.309v1.066h-.672v.863h.672v2.239c0 .835.414 1.175 1.461 1.175.218 0 .429-.023.57-.05v-.84c-.11.011-.188.019-.336.019-.387 0-.559-.179-.559-.566v-1.977h.895v-.863h-.895v-1.066h-1.136ZM211.5 130.727c1.324 0 2.121-.836 2.121-2.243 0-1.394-.809-2.242-2.121-2.242-1.312 0-2.121.852-2.121 2.242 0 1.403.797 2.243 2.121 2.243Zm0-.899c-.609 0-.953-.492-.953-1.344 0-.843.348-1.339.953-1.339.602 0 .953.496.953 1.339 0 .852-.348 1.344-.953 1.344ZM214.551 130.637h1.137v-2.489c0-.582.324-.957.851-.957.539 0 .793.317.793.922v2.524h1.137v-2.782c0-1.027-.516-1.613-1.473-1.613-.637 0-1.074.301-1.273.785h-.071v-.691h-1.101v4.301Z"/></svg>
